X: 24
T: Big Scioty
R: reel
M: 4/4
L: 1/8
K: Gmaj
DEF |: "G"G2 GG AGEG | AG-G2 G2 (3ABc  | BAGB AGEG | AG-G2 G (3DEF |G2 GG B2 d2 | 
"C"e4 e2 d2 | "G/D"BAGB "D"AGEG | "G"AG-G2 G4:||:"G"e g2 a gedg |"D"ea2 a-a2a2-| abag  "(B/D#)"edBA | 
"Em"Be-ef e2ef |"C"gfgf edBA | "G/B" Bdef e2d2|"Am"BAGB "D"AGEG|"G"AGG6 :||]

